svg/300/outlined/top_panel_close-fill.svg

<svg xmlns="http://www.w3.org/2000/svg" width="48" height="48" viewBox="0 -960 960 960"><path d="M480-442.231 354.001-315.848h251.998L480-442.231Zm-282.306 302.23q-23.596 0-40.645-17.048-17.048-17.049-17.048-40.645v-564.612q0-23.596 17.048-40.645 17.049-17.048 40.645-17.048h564.612q23.596 0 40.645 17.048 17.048 17.049 17.048 40.645v564.612q0 23.596-17.048 40.645-17.049 17.048-40.645 17.048H197.694ZM185.385-589.54v391.846q0 4.616 3.846 8.463 3.847 3.846 8.463 3.846h564.612q4.616 0 8.463-3.846 3.846-3.847 3.846-8.463V-589.54h-589.23Z"/></svg>

<svg xmlns="http://www.w3.org/2000/svg" width="48" height="48" viewBox="0 -960 960 960"><path d="M480-442.23 354-315.85h252L480-442.23ZM197.69-140q-23.59 0-40.64-17.05T140-197.69v-564.62q0-23.59 17.05-40.64T197.69-820h564.62q23.59 0 40.64 17.05T820-762.31v564.62q0 23.59-17.05 40.64T762.31-140H197.69Zm-12.3-449.54v391.85q0 4.61 3.84 8.46 3.85 3.84 8.46 3.84h564.62q4.61 0 8.46-3.84 3.84-3.85 3.84-8.46v-391.85H185.39Z"/></svg>
